X: 20424
M: 3/4
L: 1/8
K: D
d2z2d2 | c2d2e2 | f2z2f2 | e2f2g2 |\
a2z2d2 | c2d2e2 | dBecAc | "^Fin."d2z2 H:|\
d2 |\
g2z2f2 | b2g2e2 | geceba | d2"^D.C."z2 :|
[K:G]\
=c2 |\
c2e2g2 | B2d2g2 | (gf)(ed)(cB) | (B2A2 D2) |\
g2e2c2 | B2(dc)(BA) | G2B2A2 | "^D.C."G4 |]



